X:1
T:Title
%%score 1 { 2 | 3 }
L:1/8
Q:1/4=107
M:4/4
K:F
V:1 treble nm="Grand Piano, Soprano"
V:2 treble nm="Choir Pad, Burundi, 87.87 D"
V:3 bass 
V:1
 [FA][FA] [FB]2 [FA]2 C2 | [FA]2 [FA]2 [EG]4 | [EG][EG] [EA]2 [EG]2 C2 | [Ec]2 [Fc]6 | %4
w: By~George~Coles~Stebbins,~1906 * * * *||||
 [Fc][Fc] [Fd]2 [Fc]2 [FA]2 | [Ac]2 [Ac]2 [GB]4 | F[FG] [FA]2 C2 [EG]2- | [EG]F F6 | %8
w: ||||
 [Fc][Fc] [Ec]2 [EG]2 [CF]2 | [EG]2 [FA]2 F4 | [Fc][Fc] [Fd]2 [Fc]2 [GB]2 | [^FA]2 [GB]6 | %12
w: ||||
 [Bd][Bf] [Be]2 [Bd]2 [Ac]2 | [GB]2 [FA]2 [Fc]4 | [Dc][^CB] [=CA]2 C2 [EG]2- | [EG]F F6- | %16
w: ||||
 F2 z2 z4 |] %17
w: |
V:2
 CC D2 C2 A,2 | C2 C2[K:bass] B,4 | B,B, C2 B,2 G,2 | B,2 A,6 | CC B,2 C2 C2 | D2 D2 D4 | %6
 D^C D2[K:bass] A,2 B,2- | B,A, A,6 | A,A,G,G, B,2 A,2 | C2 C2 A,4 | CCB,B, C2 D2 | D2 D6 | %12
 DDCC C2 C2 | C2 C2[K:bass] A,4 | B,F,F,F, A,2 B,2- | B,A, A,6- | A,2 z2 z4 |] %17
V:3
 F,F, F,2 F,2 F,2 | F,2 C,2 C,4 | C,C, C,2 C,2 E,2 | C,2 F,6 | A,A, z2 A,2 D,2 | D,2 G,2 G,4 | %6
 B,,B,, C,2 C,2 C,2- | C,F, F,6 | F,F,C,C, C,2 C,2 | C,2 F,2 F,4 | A,A, z2 A,2 G,2 | D,2 G,6 | %12
 G,G,C,C, C,2 C,2 | E,2 F,2 F,4 | B,,B,,C,C, C,2 C,2- | C,F, F,6- | F,2 z2 z4 |] %17

